images/icons/map-pin.svg

<svg width="48" height="54" viewBox="0 0 48 54" fill="none" xmlns="http://www.w3.org/2000/svg">
<path d="M24 48C37.2548 48 48 37.2548 48 24C48 10.7452 37.2548 0 24 0C10.7452 0 0 10.7452 0 24C0 37.2548 10.7452 48 24 48Z" fill="#FFE17F"/>
<path d="M24.1 16.2002C21 16.2002 18.5 18.8002 18.5 22.0002C18.5 22.6002 18.6 23.1002 18.7 23.6002C18.8 24.0002 19 24.5002 19.2 24.8002C20 26.5002 21.2 28.1002 23.5 30.8002C23.7 31.0002 24.2 31.4002 24.8 30.7002C29.6 25.3002 29.6 22.6002 29.6 22.6002C29.6 22.4002 29.6 22.1002 29.6 21.9002C29.7 18.8002 27.2 16.2002 24.1 16.2002Z" fill="black"/>
<path d="M24 0C10.7 0 0 10.7 0 24C0 35.9 8.7 45.8 20.1 47.7L24.1 54L28.1 47.6C39.4 45.7 48 35.9 48 24C48 10.7 37.3 0 24 0ZM33 22.4C33 22.4 33.1 26.7 24.9 35.4C24.1 36.2 23.3 35.4 23.3 35.4C19.5 31 17.5 28.5 16.2 25.8C15.9 25.2 15.6 24.6 15.4 23.9C15.2 23.1 15 22.3 15 21.4C15 16.4 19.1 12.3 24.1 12.3C29.1 12.3 33.2 16.4 33.2 21.4C33.1 21.7 33 22 33 22.4Z" fill="black"/>
</svg>

<svg width="48" height="54" fill="none" xmlns="http://www.w3.org/2000/svg"><path d="M24 48c13.255 0 24-10.745 24-24S37.255 0 24 0 0 10.745 0 24s10.745 24 24 24z" fill="#FFE17F"/><path d="M24.1 16.2c-3.1 0-5.6 2.6-5.6 5.8 0 .6.1 1.1.2 1.6.1.4.3.9.5 1.2.8 1.7 2 3.3 4.3 6 .2.2.7.6 1.3-.1 4.8-5.4 4.8-8.1 4.8-8.1v-.7c.1-3.1-2.4-5.7-5.5-5.7z" fill="#000"/><path d="M24 0C10.7 0 0 10.7 0 24c0 11.9 8.7 21.8 20.1 23.7l4 6.3 4-6.4C39.4 45.7 48 35.9 48 24 48 10.7 37.3 0 24 0zm9 22.4s.1 4.3-8.1 13c-.8.8-1.6 0-1.6 0-3.8-4.4-5.8-6.9-7.1-9.6-.3-.6-.6-1.2-.8-1.9-.2-.8-.4-1.6-.4-2.5 0-5 4.1-9.1 9.1-9.1s9.1 4.1 9.1 9.1c-.1.3-.2.6-.2 1z" fill="#000"/></svg>
